usr/share/icons/biglinux-icons-material-dark/22/actions/text-frame-link.svg

<svg xmlns="http://www.w3.org/2000/svg" viewBox="0 0 22 22">
<defs id="defs3051">
<style id="current-color-scheme" type="text/css">
.ColorScheme-Text{color:#dedede}
</style>
</defs>
<path d="M3 3v16h7v-1H4V4h6V3zm10 0v1h5v14h-5v1h6V3zm0 15V4h-1v14zM5 5v1h3V5zm0 2v1h3V7zm0 2v1h3V9zm4 0v4l2-2zm-4 2v1h2v-1z" class="ColorScheme-Text" style="fill:currentColor;fill-opacity:1;stroke:none"/>
</svg>

<svg xmlns="http://www.w3.org/2000/svg" viewBox="0 0 22 22">
  <defs id="defs3051">
    <style type="text/css" id="current-color-scheme">
      .ColorScheme-Text {
        color:#dedede;
      }
      </style>
  </defs>
 <path 
     style="fill:currentColor;fill-opacity:1;stroke:none" 
     d="M 3 3 L 3 4 L 3 19 L 4 19 L 10 19 L 10 18 L 4 18 L 4 4 L 10 4 L 10 3 L 4 3 L 3 3 z M 13 3 L 13 4 L 18 4 L 18 18 L 13 18 L 13 19 L 19 19 L 19 18 L 19 3 L 13 3 z M 13 18 L 13 4 L 12 4 L 12 18 L 13 18 z M 5 5 L 5 6 L 8 6 L 8 5 L 5 5 z M 5 7 L 5 8 L 8 8 L 8 7 L 5 7 z M 5 9 L 5 10 L 8 10 L 8 9 L 5 9 z M 9 9 L 9 13 L 11 11 L 9 9 z M 5 11 L 5 12 L 7 12 L 7 11 L 5 11 z "
	 class="ColorScheme-Text"
     />
</svg>
